X: 78
T:Walts Senghennydd
T:The Senghennydd Waltz
M:3/4
L:1/8
Q:200
S:Cadw Twmpath Collection
R:Waltz
A:Wales
Z:brian_martin12345@yahoo.com
K:G
D2|"$"B2G2G2|G2A2B2|d4c2|AF GA Bc|B2G2G2|G2A2B2|Ad ^cd fd|AF GA Bc|
B2G2G2|g2f2=f2|eC EG ce|g3e cA|d4cA|d4cA|G>F G>B d>B|" Fine"G4:||
de|d2f2f2|f4 (3ded|B2g2g2|g4 (3ded|c>d a>g d>c|B>d g>d c>B|d4c2|A4de|
d2f2f2|f4 (3ded|B2g2g2|g4 (3ded|c>f a>g d>c|B>d g>d c>B|d4A2|FD EF" D.S."GA||
